markup/dist/img/app-dev-03.svg

<svg id="Слой_1" data-name="Слой 1" xmlns="http://www.w3.org/2000/svg" viewBox="0 0 512 512"><defs><style>.cls-1{fill:#fff}.cls-2{fill:#c9dc7d}.cls-3{fill:#4d4d4f;stroke:#4d4d4f;stroke-miterlimit:10;stroke-width:4px}</style></defs><path class="cls-1" d="M481.92 361.15H31.33a19.94 19.94 0 0 1-19.94-19.94V51.12a19.94 19.94 0 0 1 19.94-19.94h450.59a19.94 19.94 0 0 1 19.94 19.94v290.09a19.94 19.94 0 0 1-19.94 19.94zM326.41 441.9H186.84l10-80.75h119.6z"/><path class="cls-2" d="M346.34 481.77H166.91a10 10 0 0 1-10-10v-19.9a10 10 0 0 1 10-10h179.43a10 10 0 0 1 10 10v19.94a10 10 0 0 1-10 9.96z"/><path class="cls-1" d="M490.83 481.77H367.34a11 11 0 0 1-11-11V221.56a11 11 0 0 1 11-11h123.49a11 11 0 0 1 11 11v249.19a11 11 0 0 1-11 11.02z"/><path class="cls-2" d="M356.31 244.71v-23.15a11 11 0 0 1 11-11h123.52a11 11 0 0 1 11 11v23.15zm0 202.88v23.16a11 11 0 0 0 11 11h123.52a11 11 0 0 0 11-11v-23.16zM83.17 93h159.5v119.61H83.17zm302.05 180.43H473v65.79h-87.78z"/><path class="cls-3" d="M481.92 23.71H31.33A27.44 27.44 0 0 0 3.91 51.12v290.09a27.45 27.45 0 0 0 27.42 27.42h36.36a7.48 7.48 0 0 0 0-14.95H31.33a12.48 12.48 0 0 1-12.46-12.47V51.12a12.47 12.47 0 0 1 12.46-12.46h450.59a12.47 12.47 0 0 1 12.46 12.46v152.29a18 18 0 0 0-3.55-.36h-13.4v-140a7.46 7.46 0 0 0-7.43-7.44h-68.39a7.48 7.48 0 1 0 0 15h60.87v132.44h-95.14a18.54 18.54 0 0 0-18.51 18.51v100.21H50.77V70.56h316a7.48 7.48 0 0 0 0-15H43.29a7.46 7.46 0 0 0-7.47 7.47v266.22a7.47 7.47 0 0 0 7.47 7.48h305.55v16.95h-246a7.48 7.48 0 0 0 0 14.95h85.57l-8.13 65.79h-13.37a17.47 17.47 0 0 0-17.45 17.45v19.94a17.46 17.46 0 0 0 17.45 17.44h179.43a17.33 17.33 0 0 0 10.32-3.41 18.41 18.41 0 0 0 10.68 3.41h123.49a18.52 18.52 0 0 0 18.5-18.5V331.87a7.48 7.48 0 1 0-14.95 0v108.25H363.79V252.19h130.59v44.68a7.48 7.48 0 1 0 14.95 0V51.12a27.43 27.43 0 0 0-27.41-27.41zM348.83 434.62a17 17 0 0 0-2.49-.2H333l-8.13-65.79h23.94zm-145.41-66h106.41l8.17 65.8H195.3zm145.41 103.19a2.49 2.49 0 0 1-2.49 2.49H166.91a2.5 2.5 0 0 1-2.5-2.49v-19.94a2.5 2.5 0 0 1 2.5-2.5h179.43a2.5 2.5 0 0 1 2.5 2.5v19.94zm145.55-1.06a3.56 3.56 0 0 1-3.55 3.55H367.34a3.56 3.56 0 0 1-3.55-3.55v-15.68h130.59zM363.79 237.23v-15.67a3.55 3.55 0 0 1 3.55-3.55h123.49a3.55 3.55 0 0 1 3.55 3.55v15.67z"/><path class="cls-3" d="M83.17 220.09h159.5a7.48 7.48 0 0 0 7.48-7.48V93a7.48 7.48 0 0 0-7.48-7.48H83.17A7.48 7.48 0 0 0 75.69 93v119.61a7.47 7.47 0 0 0 7.48 7.48zm7.47-119.62h144.55v104.67H90.64zM329.9 256.48a7.48 7.48 0 0 0-7.48-7.48H83.17a7.48 7.48 0 0 0 0 15h239.25a7.48 7.48 0 0 0 7.48-7.52zm-246.73 30.4a7.48 7.48 0 0 0 0 15h129.59a7.48 7.48 0 0 0 0-15zM430.08 99.47H272.57a7.48 7.48 0 0 0 0 15h157.51a7.48 7.48 0 1 0 0-15zm5.48 60.31a7.46 7.46 0 0 0-7.47-7.47H272.57a7.48 7.48 0 0 0 0 14.95h155.52a7.47 7.47 0 0 0 7.47-7.48zm-115.13 60.31a7.48 7.48 0 0 0 0-15h-47.86a7.48 7.48 0 0 0 0 15zm159.99 53.34A7.47 7.47 0 0 0 473 266h-87.78a7.47 7.47 0 0 0-7.47 7.48v65.79a7.47 7.47 0 0 0 7.47 7.48H473a7.47 7.47 0 0 0 7.47-7.48zm-14.95 58.31H392.7V280.9h72.77zm7.53 26.92h-87.78a7.48 7.48 0 0 0 0 14.95H473a7.48 7.48 0 0 0 0-14.95zm7.42 36.39a7.47 7.47 0 0 0-7.47-7.48h-87.73a7.48 7.48 0 0 0 0 14.95H473a7.47 7.47 0 0 0 7.42-7.47zm-95.2 21.43a7.48 7.48 0 0 0 0 14.95h46.85a7.48 7.48 0 1 0 0-14.95z"/></svg>

<svg id="Слой_1" data-name="Слой 1" xmlns="http://www.w3.org/2000/svg" viewBox="0 0 512 512"><defs><style>.cls-1{fill:#fff;}.cls-2{fill:#c9dc7d;}.cls-3{fill:#4d4d4f;stroke:#4d4d4f;stroke-miterlimit:10;stroke-width:4px;}</style></defs><title>app-dev</title><path class="cls-1" d="M481.92,361.15H31.33a19.94,19.94,0,0,1-19.94-19.94V51.12A19.94,19.94,0,0,1,31.33,31.18H481.92a19.94,19.94,0,0,1,19.94,19.94V341.21A19.94,19.94,0,0,1,481.92,361.15Z"/><path class="cls-1" d="M326.41,441.9H186.84l10-80.75H316.44Z"/><path class="cls-2" d="M346.34,481.77H166.91a10,10,0,0,1-10-10V451.87a10,10,0,0,1,10-10H346.34a10,10,0,0,1,10,10v19.94A10,10,0,0,1,346.34,481.77Z"/><path class="cls-1" d="M490.83,481.77H367.34a11,11,0,0,1-11-11V221.56a11,11,0,0,1,11-11H490.83a11,11,0,0,1,11,11V470.75A11,11,0,0,1,490.83,481.77Z"/><path class="cls-2" d="M356.31,244.71V221.56a11,11,0,0,1,11-11H490.83a11,11,0,0,1,11,11v23.15Z"/><path class="cls-2" d="M356.31,447.59v23.16a11,11,0,0,0,11,11H490.83a11,11,0,0,0,11-11V447.59Z"/><path class="cls-2" d="M83.17,93h159.5V212.61H83.17Z"/><path class="cls-2" d="M385.22,273.43H473v65.79H385.22Z"/><path class="cls-3" d="M481.92,23.71H31.33A27.44,27.44,0,0,0,3.91,51.12V341.21a27.45,27.45,0,0,0,27.42,27.42H67.69a7.48,7.48,0,0,0,0-14.95H31.33a12.48,12.48,0,0,1-12.46-12.47V51.12A12.47,12.47,0,0,1,31.33,38.66H481.92a12.47,12.47,0,0,1,12.46,12.46V203.41a18,18,0,0,0-3.55-.36h-13.4v-140A7.46,7.46,0,0,0,470,55.61H401.61a7.48,7.48,0,1,0,0,15h60.87V203.05H367.34a18.54,18.54,0,0,0-18.51,18.51V321.77H50.77V70.56h316a7.48,7.48,0,0,0,0-15H43.29a7.46,7.46,0,0,0-7.47,7.47V329.25a7.47,7.47,0,0,0,7.47,7.48H348.84v16.95h-246a7.48,7.48,0,0,0,0,14.95h85.57l-8.13,65.79H166.91a17.47,17.47,0,0,0-17.45,17.45v19.94a17.46,17.46,0,0,0,17.45,17.44H346.34a17.33,17.33,0,0,0,10.32-3.41,18.41,18.41,0,0,0,10.68,3.41H490.83a18.52,18.52,0,0,0,18.5-18.5V331.87a7.48,7.48,0,1,0-14.95,0V440.12H363.79V252.19H494.38v44.68a7.48,7.48,0,1,0,14.95,0V51.12A27.43,27.43,0,0,0,481.92,23.71ZM348.83,434.62a17,17,0,0,0-2.49-.2H333l-8.13-65.79h23.94Zm-145.41-66H309.83L318,434.42H195.3ZM348.83,471.81a2.49,2.49,0,0,1-2.49,2.49H166.91a2.5,2.5,0,0,1-2.5-2.49V451.87a2.5,2.5,0,0,1,2.5-2.5H346.34a2.5,2.5,0,0,1,2.5,2.5v19.94Zm145.55-1.06a3.56,3.56,0,0,1-3.55,3.55H367.34a3.56,3.56,0,0,1-3.55-3.55V455.07H494.38ZM363.79,237.23V221.56a3.55,3.55,0,0,1,3.55-3.55H490.83a3.55,3.55,0,0,1,3.55,3.55v15.67Z"/><path class="cls-3" d="M83.17,220.09h159.5a7.48,7.48,0,0,0,7.48-7.48V93a7.48,7.48,0,0,0-7.48-7.48H83.17A7.48,7.48,0,0,0,75.69,93V212.61A7.47,7.47,0,0,0,83.17,220.09Zm7.47-119.62H235.19V205.14H90.64Z"/><path class="cls-3" d="M329.9,256.48a7.48,7.48,0,0,0-7.48-7.48H83.17a7.48,7.48,0,0,0,0,15H322.42A7.48,7.48,0,0,0,329.9,256.48Z"/><path class="cls-3" d="M83.17,286.88a7.48,7.48,0,0,0,0,15H212.76a7.48,7.48,0,0,0,0-15Z"/><path class="cls-3" d="M430.08,99.47H272.57a7.48,7.48,0,0,0,0,15H430.08a7.48,7.48,0,1,0,0-15Z"/><path class="cls-3" d="M435.56,159.78a7.46,7.46,0,0,0-7.47-7.47H272.57a7.48,7.48,0,0,0,0,14.95H428.09A7.47,7.47,0,0,0,435.56,159.78Z"/><path class="cls-3" d="M320.43,220.09a7.48,7.48,0,0,0,0-15H272.57a7.48,7.48,0,0,0,0,15Z"/><path class="cls-3" d="M480.42,273.43A7.47,7.47,0,0,0,473,266H385.22a7.47,7.47,0,0,0-7.47,7.48v65.79a7.47,7.47,0,0,0,7.47,7.48H473a7.47,7.47,0,0,0,7.47-7.48Zm-14.95,58.31H392.7V280.9h72.77Z"/><path class="cls-3" d="M473,358.66H385.22a7.48,7.48,0,0,0,0,14.95H473a7.48,7.48,0,0,0,0-14.95Z"/><path class="cls-3" d="M480.42,395.05a7.47,7.47,0,0,0-7.47-7.48H385.22a7.48,7.48,0,0,0,0,14.95H473A7.47,7.47,0,0,0,480.42,395.05Z"/><path class="cls-3" d="M385.22,416.48a7.48,7.48,0,0,0,0,14.95h46.85a7.48,7.48,0,1,0,0-14.95Z"/></svg>
